X: 92
T: No_188_Song_of_the_Begging_Dance.krn
N: Derived from No_188_Song_of_the_Begging_Dance.krn
%%abc-version 2.0
%%abcx-abcm2ps-target-version 5.9.1 (29 Sep 2008)
%%abc-creator hum2abc beta
%%abcx-conversion-date 2019/03/15 08:29:13
%%humdrum-veritas 2602295681
%%humdrum-veritas-data 3487040281
%%linebreak <none>
%%barnumbers 0
L: 1/4
M: 3/8
%%staves {1 2}
V: 1 clef=bass
V: 2 clef=bass
K: G
[V:1] D/ [I:setbarnb 1]| 
[V:2] G,,/ | 
[V:1] DE/ ||  
[V:2] (3!accent!G,,/ z/ G,,/ z/ ||  
[V:1] [M:2/8]D | 
[V:2] [M:2/8]z | 
[V:1] E/D/ ||  
[V:2] z ||  
[V:1] [M:3/8]B,3/ ||  
[V:2] [M:3/8]z3/ ||  
[V:1] [M:2/8]^A, ||  
[V:2] [M:2/8]z ||  
[V:1] [M:3/8]G,B,/ | 
[V:2] [M:3/8]z3/ | 
[V:1] B,B,/ ||  
[V:2] z3/ ||  
[V:1] [M:2/8]B, | 
[V:2] [M:2/8]z | 
[V:1] C/B,/ ||  
[V:2] z ||  
[V:1] [M:3/8]G,3/ ||  
[V:2] [M:3/8]z3/ ||  
[V:1] [M:2/8]F, ||  
[V:2] [M:2/8]z ||  
[V:1] [M:3/8]D,G,/ | 
[V:2] [M:3/8]z3/ | 
[V:1] F,F,/ | 
[V:2] z3/ | 
[V:1] E,E,/ ||  
[V:2] z3/ ||  
[V:1] [M:2/8]E, | 
[V:2] [M:2/8]z | 
[V:1] F,/E,/ | 
[V:2] z | 
[V:1] D,- | 
[V:2] z | 
[V:1] D,/D,/ | 
[V:2] z | 
[V:1] D, ||  
[V:2] z ||  
[V:1] [M:3/8]B,,D,/ | 
[V:2] [M:3/8]z3/ | 
[V:1] D,D,/ ||  
[V:2] z3/ ||  
[V:1] [M:2/8]D, | 
[V:2] [M:2/8]z | 
[V:1] E, | 
[V:2] z | 
[V:1] D, | 
[V:2] z | 
[V:1] D, | 
[V:2] z | 
[V:1] D,- | 
[V:2] z | 
[V:1] D,/D,/ | 
[V:2] z | 
[V:1] D, :|]  
[V:2] z :|]  



